X:313
T:
R:polska
S:Efter »Florsen» i Burs.
O:Gotland, Burs
N:Stämning: F, F A e
M:3/4
L:1/16
K:F
A2|[F,F]3a a3f gfef|[F,F]3d d3c c2B2|ABcd c2de f2ga|b2g2 agfe f2cA|
[F,F]3a a3f gfef|F3d d2c2 c2B2|ABcd c2de f2ga|b2g2 agfe f2:|
|:A2|(AFF,)F (AFF,)F LdcBA|(BFF,)F (BFF,)F L_edcB|(AFF,)F (AFF,)F LdcBA|
(BFF,)F (BFF,)F L_edcB|ABcd c2de f2ga|b2g2 agfe f2:|

